polaris-icons/icons/newicons/TransferOutMajor.svg

<svg width="20" height="20" viewBox="0 0 20 20" fill="none" xmlns="http://www.w3.org/2000/svg">
<path fill-rule="evenodd" clip-rule="evenodd" d="M16.25 3C16.6642 3 17 3.33579 17 3.75V16.25C17 16.6642 16.6642 17 16.25 17C15.8358 17 15.5 16.6642 15.5 16.25V3.75C15.5 3.33579 15.8358 3 16.25 3Z" fill="black"/>
<path fill-rule="evenodd" clip-rule="evenodd" d="M13.75 10C13.75 9.58579 13.4142 9.25 13 9.25H4.71299L6.5511 7.25871C6.83206 6.95434 6.81308 6.47985 6.50871 6.1989C6.20434 5.91794 5.72985 5.93692 5.4489 6.24129L2.4489 9.49129C2.1837 9.77859 2.1837 10.2214 2.4489 10.5087L5.4489 13.7587C5.72985 14.0631 6.20435 14.0821 6.50871 13.8011C6.81308 13.5201 6.83206 13.0457 6.5511 12.7413L4.71299 10.75H13C13.4142 10.75 13.75 10.4142 13.75 10Z" fill="black"/>
</svg>

<svg viewBox="0 0 20 20" fill="none" xmlns="http://www.w3.org/2000/svg"><path fill-rule="evenodd" clip-rule="evenodd" d="M16.25 3a.75.75 0 0 1 .75.75v12.5a.75.75 0 0 1-1.5 0v-12.5a.75.75 0 0 1 .75-.75Z" fill="#5C5F62"/><path fill-rule="evenodd" clip-rule="evenodd" d="M13.75 10a.75.75 0 0 0-.75-.75h-8.287l1.838-1.991a.75.75 0 1 0-1.102-1.018l-3 3.25a.75.75 0 0 0 0 1.018l3 3.25a.75.75 0 1 0 1.102-1.018l-1.838-1.991h8.287a.75.75 0 0 0 .75-.75Z" fill="#5C5F62"/></svg>
